X: 10162
M: 3/4
L: 1/8
K: Bb
(FE) !segno!|\
|:[K:F] (cB) |\
(Ac)fga2 | (ag)fdc2 | (e>d)cBGc |[1F2z2 :|[2 F2 "_De Capo"(E2_E2) !segno!:|


